src/components/sprite-info/icon--x.svg

<svg id="Layer_1" xmlns="http://www.w3.org/2000/svg" viewBox="0 0 16 16"><style>.st0{fill:none;stroke:#575e75;stroke-linecap:round;stroke-linejoin:round;stroke-miterlimit:10}.st1{fill:#575e75}</style><path class="st0" d="M3 8h10M11.2 6.2L13 8l-1.8 1.8M4.8 9.8L3 8l1.8-1.8"/><path class="st1" d="M7.5 14c0-.3.2-.5.5-.5s.5.2.5.5-.2.5-.5.5-.5-.2-.5-.5zm0-2c0-.3.2-.5.5-.5s.5.2.5.5-.2.5-.5.5-.5-.2-.5-.5zm0-2c0-.3.2-.5.5-.5s.5.2.5.5-.2.5-.5.5-.5-.2-.5-.5zm0-2c0-.3.2-.5.5-.5s.5.2.5.5-.2.5-.5.5-.5-.2-.5-.5zm0-2c0-.3.2-.5.5-.5s.5.2.5.5-.2.5-.5.5-.5-.2-.5-.5zm0-2c0-.3.2-.5.5-.5s.5.2.5.5-.2.5-.5.5-.5-.2-.5-.5zm0-2c0-.3.2-.5.5-.5s.5.2.5.5-.2.5-.5.5-.5-.2-.5-.5z"/></svg>

<?xml version="1.0" encoding="utf-8"?>
<!-- Generator: Adobe Illustrator 21.0.0, SVG Export Plug-In . SVG Version: 6.00 Build 0)  -->
<svg version="1.1" id="Layer_1" xmlns="http://www.w3.org/2000/svg" xmlns:xlink="http://www.w3.org/1999/xlink" x="0px" y="0px"
	 viewBox="0 0 16 16" style="enable-background:new 0 0 16 16;" xml:space="preserve">
<style type="text/css">
	.st0{fill:none;stroke:#575E75;stroke-linecap:round;stroke-linejoin:round;stroke-miterlimit:10;}
	.st1{fill:#575E75;}
</style>
<g>
	<line class="st0" x1="3" y1="8" x2="13" y2="8"/>
	<polyline class="st0" points="11.2,6.2 13,8 11.2,9.8 	"/>
	<polyline class="st0" points="4.8,9.8 3,8 4.8,6.2 	"/>
	<g>
		<path class="st1" d="M7.5,14c0-0.3,0.2-0.5,0.5-0.5l0,0c0.3,0,0.5,0.2,0.5,0.5l0,0c0,0.3-0.2,0.5-0.5,0.5l0,0
			C7.7,14.5,7.5,14.3,7.5,14z M7.5,12c0-0.3,0.2-0.5,0.5-0.5l0,0c0.3,0,0.5,0.2,0.5,0.5l0,0c0,0.3-0.2,0.5-0.5,0.5l0,0
			C7.7,12.5,7.5,12.3,7.5,12z M7.5,10c0-0.3,0.2-0.5,0.5-0.5l0,0c0.3,0,0.5,0.2,0.5,0.5l0,0c0,0.3-0.2,0.5-0.5,0.5l0,0
			C7.7,10.5,7.5,10.3,7.5,10z M7.5,8c0-0.3,0.2-0.5,0.5-0.5l0,0c0.3,0,0.5,0.2,0.5,0.5l0,0c0,0.3-0.2,0.5-0.5,0.5l0,0
			C7.7,8.5,7.5,8.3,7.5,8z M7.5,6c0-0.3,0.2-0.5,0.5-0.5l0,0c0.3,0,0.5,0.2,0.5,0.5l0,0c0,0.3-0.2,0.5-0.5,0.5l0,0
			C7.7,6.5,7.5,6.3,7.5,6z M7.5,4c0-0.3,0.2-0.5,0.5-0.5l0,0c0.3,0,0.5,0.2,0.5,0.5l0,0c0,0.3-0.2,0.5-0.5,0.5l0,0
			C7.7,4.5,7.5,4.3,7.5,4z M7.5,2c0-0.3,0.2-0.5,0.5-0.5l0,0c0.3,0,0.5,0.2,0.5,0.5l0,0c0,0.3-0.2,0.5-0.5,0.5l0,0
			C7.7,2.5,7.5,2.3,7.5,2z"/>
	</g>
</g>
</svg>
